material/.icons/material/play-box-multiple-outline.svg

<svg xmlns="http://www.w3.org/2000/svg" viewBox="0 0 24 24"><path d="M4 6H2v14c0 1.1.9 2 2 2h14v-2H4V6m16-2v12H8V4h12m0-2H8c-1.1 0-2 .9-2 2v12c0 1.1.9 2 2 2h12c1.1 0 2-.9 2-2V4c0-1.1-.9-2-2-2m-8 12.5v-9l6 4.5-6 4.5z"/></svg>

<?xml version="1.0" encoding="UTF-8"?><!DOCTYPE svg PUBLIC "-//W3C//DTD SVG 1.1//EN" "http://www.w3.org/Graphics/SVG/1.1/DTD/svg11.dtd"><svg xmlns="http://www.w3.org/2000/svg" xmlns:xlink="http://www.w3.org/1999/xlink" version="1.1" id="mdi-play-box-multiple-outline" width="24" height="24" viewBox="0 0 24 24"><path d="M4 6H2V20C2 21.1 2.9 22 4 22H18V20H4V6M20 4V16H8V4H20M20 2H8C6.9 2 6 2.9 6 4V16C6 17.1 6.9 18 8 18H20C21.1 18 22 17.1 22 16V4C22 2.9 21.1 2 20 2M12 14.5V5.5L18 10L12 14.5Z" /></svg>
